X: 11031
T: SIR DAVID HUNTER BLAIR'S REEL
O: German air.
%R: air, reel
B: W. Hamilton "Universal Tune-Book" Vol. 1 Glasgow 1844 p.103 #1
S: http://imslp.org/wiki/Hamilton's_Universal_Tune-Book_(Various)
Z: 2016 John Chambers <jc:trillian.mit.edu>
M: 2/4
L: 1/16
K: F
%%stretchstaff 0
%%slurgraces yes
%%graceslurs yes
% - - - - - - - - - - - - - - - - - - - - - - - - -
|:\
f4Tc3d | Tc3dTc3d | c3fa4 | c3f a4 |\
b4Tg3a | Tg3aTg3a | {a}g3fe3f | g3ec4 ::\
a3ff4 | c2f2A2c2 | F2A2c2f2 | e3gTg4 |\
a3fTf4 | c2f2A2c2 | F2A2c2f2 | g3eTf4 :|
% - - - - - - - - - - - - - - - - - - - - - - - - -

%%sep 1 1 500
%%sep 1 1 500

